src/images/single-assets/QBT.svg

<svg width="96" height="96" viewBox="0 0 96 96" fill="none" xmlns="http://www.w3.org/2000/svg">
<circle cx="48" cy="48" r="48" fill="#FFC800"/>
<path fill-rule="evenodd" clip-rule="evenodd" d="M50.1388 69.6655C49.4352 69.7341 48.7216 69.7693 47.9999 69.7693C35.9771 69.7693 26.2308 60.0228 26.2308 48C26.2308 35.9771 35.9771 26.2308 47.9999 26.2308C60.0227 26.2308 69.7692 35.9771 69.7692 48C69.7692 52.4704 68.4217 56.626 66.1107 60.0831C64.4209 58.777 62.3016 57.9999 60.0007 57.9999C54.4779 57.9999 50.0008 62.4772 50.0008 67.9999C50.0008 68.5675 50.048 69.1239 50.1388 69.6655ZM53.37 75.4855C51.632 75.8232 49.8367 76.0001 47.9999 76.0001C32.536 76.0001 20 63.464 20 48C20 32.5361 32.536 20 47.9999 20C63.464 20 76 32.5361 76 48C76 54.6973 73.6487 60.8455 69.7264 65.6638C69.9057 66.4134 70.0007 67.1956 70.0007 67.9999C70.0007 73.5227 65.5236 78 60.0007 78C57.4569 78 55.1348 77.0501 53.37 75.4855Z" fill="white"/>
</svg>

<svg xmlns="http://www.w3.org/2000/svg" width="96" height="96" fill="none"><circle cx="48" cy="48" r="48" fill="#FFC800"/><path fill="#fff" fill-rule="evenodd" d="M50.139 69.666q-1.056.102-2.14.103c-12.022 0-21.768-9.746-21.768-21.769S35.977 26.23 48 26.23 69.77 35.978 69.77 48c0 4.47-1.348 8.626-3.66 12.083A9.96 9.96 0 0 0 60 58c-5.522 0-10 4.477-10 10q.001.852.139 1.665m3.231 5.82A28 28 0 0 1 48 76c-15.464 0-28-12.536-28-28s12.536-28 28-28 28 12.536 28 28a27.88 27.88 0 0 1-6.274 17.664c.18.75.275 1.532.275 2.336 0 5.523-4.477 10-10 10a9.96 9.96 0 0 1-6.631-2.514" clip-rule="evenodd"/></svg>
